X:1
T:Net-Hauling Song
M:6/8
L:1/8
K:C
 z4 z G| ECC CEG| cBc d2 c| BGG GEF| GDE F2 G| c3/2 d/2e/2 c/2 dBG|\
 FDE F2 G| ECC CDE| FEF DEF| G3/2 E/2 C FEC| FEF D2 z|
